public/assets/trusts-llama/binance.svg

<svg fill="none" height="29" viewBox="0 0 141 29" width="141" xmlns="http://www.w3.org/2000/svg"><g fill="#fff"><path d="m9.47281 12.126 5.42039-5.42017 5.4233 5.42307 3.1539-3.15399-8.5772-8.577449-8.57435 8.574579z"/><path d="m7.24571 14.3526-3.15391-3.1539-3.154069 3.1541 3.153909 3.1539z"/><path d="m9.47256 16.5803 5.42044 5.4202 5.423-5.4229 3.1557 3.1522-.0015.0018-8.5772 8.5772-8.57463-8.5743-.00441-.0044z"/><path d="m25.6951 17.5083 3.154-3.1541-3.1539-3.1539-3.1541 3.1541z"/><path d="m18.0926 14.3514h.0013l-3.2005-3.2005-2.3652 2.3652h-.0002l-.2716.2718-.5606.5606-.0044.0044.0044.0046 3.1976 3.1976 3.2005-3.2004.0016-.0018z"/><path d="m33.7661 7.1604h6.8597c1.7026 0 2.99.43693 3.8625 1.31079.6753.67678 1.0128 1.51559 1.0128 2.51621v.0423c0 .4228-.0523.7965-.1574 1.1206-.105.3245-.2452.6166-.4204.8773-.1749.2611-.3781.4901-.6091.6872-.2313.1975-.4797.3668-.7458.5075.8558.3245 1.5295.7647 2.0206 1.3216.491.557.7368 1.3288.7368 2.3153v.0421c0 .6768-.1301 1.2687-.3905 1.7764-.2603.5073-.6333.9303-1.119 1.2687-.4856.3384-1.0696.5919-1.7521.7612-.6825.1691-1.4389.2535-2.2688.2535h-7.0293zm6.1739 5.9836c.7191 0 1.2901-.123 1.7127-.3699.4228-.2467.6342-.645.6342-1.1946v-.0423c0-.4932-.1834-.8701-.5498-1.1311-.3666-.2608-.8952-.3913-1.5857-.3913h-3.2139v3.1292zm.867 5.963c.7189 0 1.2824-.1301 1.6915-.3911.4088-.2608.6133-.6662.6133-1.216v-.0421c0-.4934-.1904-.8845-.5709-1.1737-.3807-.2885-.9938-.4332-1.8397-.4332h-3.7637v3.2563z"/><path d="m50.4111 7.1604h3.2565v14.8012h-3.2565z"/><path d="m58.5996 7.1604h3.0021l6.9355 9.1134v-9.1134h3.214v14.8012h-2.7698l-7.1681-9.4092v9.4092h-3.2137z"/><path d="m81.6095 7.05493h3.0023l6.3436 14.90677h-3.4044l-1.3533-3.3195h-6.2588l-1.3531 3.3195h-3.3202zm3.4253 8.71127-1.9666-4.7996-1.966 4.7996z"/><path d="m94.4707 7.1604h3.0027l6.9356 9.1134v-9.1134h3.213v14.8012h-2.769l-7.1684-9.4092v9.4092h-3.2139z"/><path d="m119.341 22.2152c-1.085 0-2.093-.1976-3.023-.592-.931-.3943-1.734-.9338-2.411-1.6176-.677-.6836-1.205-1.4907-1.586-2.421-.38-.9305-.571-1.9243-.571-2.9815v-.0422c0-1.0572.191-2.0473.571-2.9707.381-.9233.909-1.73386 1.586-2.43158.676-.69772 1.487-1.24774 2.431-1.64939.945-.40166 1.988-.60249 3.13-.60249.69 0 1.321.05665 1.892.16908.571.11309 1.089.26785 1.554.46515.466.19752.895.43715 1.291.71888.393.28218.76.59213 1.099.93052l-2.072 2.38923c-.579-.5214-1.167-.9305-1.766-1.2264-.599-.2958-1.272-.44395-2.019-.44395-.621 0-1.195.11995-1.723.35955-.529.2396-.984.5707-1.364.9936-.381.4228-.677.9128-.889 1.4695-.211.5571-.316 1.1525-.316 1.7867v.0421c0 .6343.105 1.2337.316 1.7971.212.5642.504 1.0573.878 1.4801s.825.7579 1.353 1.0046c.529.2469 1.111.3699 1.745.3699.846 0 1.561-.155 2.146-.4651.585-.3098 1.166-.7328 1.744-1.2687l2.073 2.0934c-.381.4089-.776.7755-1.185 1.0993-.408.3245-.856.6028-1.342.8355-.487.2324-1.019.409-1.597.5285-.578.1197-1.226.1799-1.945.1799z"/><path d="m129.242 7.1604h11.143v2.8969h-7.929v3.0025h6.977v2.8967h-6.977v3.1084h8.035v2.8967h-11.249z"/></g></svg>

<svg xmlns="http://www.w3.org/2000/svg" width="141" height="29" viewBox="0 0 141 29" fill="none">
  <path d="M9.47281 12.126L14.8932 6.70583L20.3165 12.1289L23.4704 8.97491L14.8932 0.397461L6.31885 8.97204L9.47281 12.126Z" fill="white"/>
  <path d="M7.24571 14.3526L4.0918 11.1987L0.937731 14.3528L4.09164 17.5067L7.24571 14.3526Z" fill="white"/>
  <path d="M9.47256 16.5803L14.893 22.0005L20.316 16.5776L23.4717 19.7298L23.4702 19.7316L14.893 28.3088L6.31837 19.7345L6.31396 19.7301L9.47256 16.5803Z" fill="white"/>
  <path d="M25.6951 17.5083L28.8491 14.3542L25.6952 11.2003L22.5411 14.3544L25.6951 17.5083Z" fill="white"/>
  <path d="M18.0926 14.3514H18.0939L14.8934 11.1509L12.5282 13.5161H12.528L12.2564 13.7879L11.6958 14.3485L11.6914 14.3529L11.6958 14.3575L14.8934 17.5551L18.0939 14.3547L18.0955 14.3529L18.0926 14.3514Z" fill="white"/>
  <path d="M33.7661 7.1604H40.6258C42.3284 7.1604 43.6158 7.59733 44.4883 8.47119C45.1636 9.14797 45.5011 9.98678 45.5011 10.9874V11.0297C45.5011 11.4525 45.4488 11.8262 45.3437 12.1503C45.2387 12.4748 45.0985 12.7669 44.9233 13.0276C44.7484 13.2887 44.5452 13.5177 44.3142 13.7148C44.0829 13.9123 43.8345 14.0816 43.5684 14.2223C44.4242 14.5468 45.0979 14.987 45.589 15.5439C46.08 16.1009 46.3258 16.8727 46.3258 17.8592V17.9013C46.3258 18.5781 46.1957 19.17 45.9353 19.6777C45.675 20.185 45.302 20.608 44.8163 20.9464C44.3307 21.2848 43.7467 21.5383 43.0642 21.7076C42.3817 21.8767 41.6253 21.9611 40.7954 21.9611H33.7661V7.1604ZM39.94 13.144C40.6591 13.144 41.2301 13.021 41.6527 12.7741C42.0755 12.5274 42.2869 12.1291 42.2869 11.5795V11.5372C42.2869 11.044 42.1035 10.6671 41.7371 10.4061C41.3705 10.1453 40.8419 10.0148 40.1514 10.0148H36.9375V13.144H39.94ZM40.807 19.107C41.5259 19.107 42.0894 18.9769 42.4985 18.7159C42.9073 18.4551 43.1118 18.0497 43.1118 17.4999V17.4578C43.1118 16.9644 42.9214 16.5733 42.5409 16.2841C42.1602 15.9956 41.5471 15.8509 40.7012 15.8509H36.9375V19.1072L40.807 19.107Z" fill="white"/>
  <path d="M50.4111 7.1604H53.6676V21.9616H50.4111V7.1604Z" fill="white"/>
  <path d="M58.5996 7.1604H61.6017L68.5372 16.2738V7.1604H71.7512V21.9616H68.9814L61.8133 12.5524V21.9616H58.5996V7.1604Z" fill="white"/>
  <path d="M81.6095 7.05493H84.6118L90.9554 21.9617H87.551L86.1977 18.6422H79.9389L78.5858 21.9617H75.2656L81.6095 7.05493ZM85.0348 15.7662L83.0682 10.9666L81.1022 15.7662H85.0348Z" fill="white"/>
  <path d="M94.4707 7.1604H97.4734L104.409 16.2738V7.1604H107.622V21.9616H104.853L97.6846 12.5524V21.9616H94.4707V7.1604Z" fill="white"/>
  <path d="M119.341 22.2152C118.256 22.2152 117.248 22.0176 116.318 21.6232C115.387 21.2289 114.584 20.6894 113.907 20.0056C113.23 19.322 112.702 18.5149 112.321 17.5846C111.941 16.6541 111.75 15.6603 111.75 14.6031V14.5609C111.75 13.5037 111.941 12.5136 112.321 11.5902C112.702 10.6669 113.23 9.85634 113.907 9.15862C114.583 8.4609 115.394 7.91088 116.338 7.50923C117.283 7.10757 118.326 6.90674 119.468 6.90674C120.158 6.90674 120.789 6.96339 121.36 7.07582C121.931 7.18891 122.449 7.34367 122.914 7.54097C123.38 7.73849 123.809 7.97812 124.205 8.25985C124.598 8.54203 124.965 8.85198 125.304 9.19037L123.232 11.5796C122.653 11.0582 122.065 10.6491 121.466 10.3532C120.867 10.0574 120.194 9.90925 119.447 9.90925C118.826 9.90925 118.252 10.0292 117.724 10.2688C117.195 10.5084 116.74 10.8395 116.36 11.2624C115.979 11.6852 115.683 12.1752 115.471 12.7319C115.26 13.289 115.155 13.8844 115.155 14.5186V14.5607C115.155 15.195 115.26 15.7944 115.471 16.3578C115.683 16.922 115.975 17.4151 116.349 17.8379C116.723 18.2607 117.174 18.5958 117.702 18.8425C118.231 19.0894 118.813 19.2124 119.447 19.2124C120.293 19.2124 121.008 19.0574 121.593 18.7473C122.178 18.4375 122.759 18.0145 123.337 17.4786L125.41 19.572C125.029 19.9809 124.634 20.3475 124.225 20.6713C123.817 20.9958 123.369 21.2741 122.883 21.5068C122.396 21.7392 121.864 21.9158 121.286 22.0353C120.708 22.155 120.06 22.2152 119.341 22.2152Z" fill="white"/>
  <path d="M129.242 7.1604H140.385V10.0573H132.456V13.0598H139.433V15.9565H132.456V19.0649H140.491V21.9616H129.242V7.1604Z" fill="white"/>
</svg>
